X:1
T: The Genteel Gent
C:
R:Jig
Q:180
K:D
M:6/8
L:1/16
A2|:f6 e2d2B2|A6 F6|A4d2 f2e2d2|e2g2f2 e2d2e2|
f6 e2d2B2|A6 F4A2|B2e2d2 c2B2c2|d6 d4A2|
F6 F2G2A2|B6 B2e2d2|c4e2 A4c2|d2f2e2 d2c2B2|
F6 F2G2A2|B6 B2e2d2|c2e2c2 A2B2c2|1d6 d4A2:|2d6d4||
